X: 07012
T: BLACK and DECKER* HORNPIPE
C: Bob McQuillen 11 Feb 88
B: Bob's Note Book 7 #12
%R: hornpipe, reel
Z: 2020 John Chambers <jc:trillian.mit.edu>
M: C
L: 1/8
K: G
BA \
| G2GD B,DGD | FGAF G2FG | ADBd cBAG | FAGE D2BA |\
| G2GD B,DGD | FGAF G2FG | ADBd ecAF | G2B2 G2  :|
|: Bc \
| d2dc BGBd | edce d2Bc | dgfg edBd | egdB A2Bc |\
| d2dc BGBd | cdeg agfe | edBd dcAF | G2B2 G2  :|
%%begintext align
%% It's all Pete Colby's fault! (I can't
%% say I had nothing to do with it,
%% but it's still Pete's fault!) You can
%% talk to Peter O'Brien, if you want - he
%% knows about these things!
%%endtext
%%text *There's a TM (trademark) symbol in the title here.

%%sep 1 1 500

%%sep 1 1 500

